images/menu-copy-category.svg

<svg xmlns="http://www.w3.org/2000/svg" viewBox="0 0 128 64" enable-background="new 0 0 128 64"><style type="text/css">.st0{fill:#83868E;} .st1{fill:#C7CBD7;}</style><path class="st0" d="M79.145 12h25.555v5.173h-25.555zM100.704 18.996h-18.69v3.129h18.691v-3.129zm-.834 2.294h-17.022v-1.46h17.022v1.46zM97.375 24.972h-15.361v3.129h15.361v-3.129zm-.834 2.294h-13.693v-1.46h13.693v1.46zM106.962 30.946h-24.948v3.129h24.949v-3.129zm-.834 2.295h-23.28v-1.46h23.28v1.46zM79.145 35.899h33.71v5.173h-33.71zM82.014 42.895v3.129h29.279v-3.129h-29.279zm28.444 2.295h-27.61v-1.46h27.61v1.46zM82.014 52h21.631v-3.129h-21.631v3.129zm.834-2.295h19.962v1.46h-19.962v-1.46z"/><path class="st1" d="M15.145 12h25.555v5.173h-25.555zM36.704 18.996h-18.69v3.129h18.691v-3.129zm-.834 2.294h-17.022v-1.46h17.022v1.46zM33.375 24.972h-15.361v3.129h15.361v-3.129zm-.834 2.294h-13.693v-1.46h13.693v1.46zM42.962 30.946h-24.948v3.129h24.949v-3.129zm-.834 2.295h-23.28v-1.46h23.28v1.46zM15.145 35.899h33.71v5.173h-33.71zM18.014 42.895v3.129h29.279v-3.129h-29.279zm28.444 2.295h-27.61v-1.46h27.61v1.46zM18.014 52h21.631v-3.129h-21.631v3.129zm.834-2.295h19.962v1.46h-19.962v-1.46z"/></svg>

<?xml version="1.0" encoding="utf-8"?>
<!-- Generator: Adobe Illustrator 21.0.1, SVG Export Plug-In . SVG Version: 6.00 Build 0)  -->
<svg version="1.1" id="Layer_1" xmlns="http://www.w3.org/2000/svg" xmlns:xlink="http://www.w3.org/1999/xlink" x="0px" y="0px"
	 viewBox="0 0 128 64" style="enable-background:new 0 0 128 64;" xml:space="preserve">
<style type="text/css">
	.st0{fill:#83868E;}
	.st1{fill:#C7CBD7;}
</style>
<g>
	<rect x="79.145" y="12" class="st0" width="25.555" height="5.173"/>
	<path class="st0" d="M100.704,18.996H82.014v3.129h18.691V18.996z M99.87,21.29H82.848v-1.46H99.87V21.29z"/>
	<path class="st0" d="M97.375,24.972H82.014v3.129h15.361V24.972z M96.541,27.266H82.848v-1.46h13.693V27.266z"/>
	<path class="st0" d="M106.962,30.946H82.014v3.129h24.949V30.946z M106.128,33.241h-23.28v-1.46h23.28V33.241z"/>
	<rect x="79.145" y="35.899" class="st0" width="33.71" height="5.173"/>
	<path class="st0" d="M82.014,42.895v3.129h29.279v-3.129H82.014z M110.458,45.19h-27.61v-1.46h27.61V45.19z"/>
	<path class="st0" d="M82.014,52h21.631v-3.129H82.014V52z M82.848,49.705h19.962v1.46H82.848V49.705z"/>
</g>
<g>
	<rect x="15.145" y="12" class="st1" width="25.555" height="5.173"/>
	<path class="st1" d="M36.704,18.996H18.014v3.129h18.691V18.996z M35.87,21.29H18.848v-1.46H35.87V21.29z"/>
	<path class="st1" d="M33.375,24.972H18.014v3.129h15.361V24.972z M32.541,27.266H18.848v-1.46h13.693V27.266z"/>
	<path class="st1" d="M42.962,30.946H18.014v3.129h24.949V30.946z M42.128,33.241h-23.28v-1.46h23.28V33.241z"/>
	<rect x="15.145" y="35.899" class="st1" width="33.71" height="5.173"/>
	<path class="st1" d="M18.014,42.895v3.129h29.279v-3.129H18.014z M46.458,45.19h-27.61v-1.46h27.61V45.19z"/>
	<path class="st1" d="M18.014,52h21.631v-3.129H18.014V52z M18.848,49.705h19.962v1.46H18.848V49.705z"/>
</g>
</svg>
